static/img/common/ico-info2.svg

<svg width="11" height="11" viewBox="0 0 11 11" fill="none" xmlns="http://www.w3.org/2000/svg">
<path d="M5.5 0.25C8.39949 0.25 10.75 2.60051 10.75 5.5C10.75 8.39949 8.39949 10.75 5.5 10.75C2.60051 10.75 0.25 8.39949 0.25 5.5C0.25 2.60051 2.60051 0.25 5.5 0.25Z" fill="#7E6E73" stroke="#6B6869" stroke-width="0.5"/>
<path d="M5.89815 2.30554H5.08333C4.94015 2.30554 4.82407 2.42162 4.82407 2.5648V3.2685C4.82407 3.41169 4.94015 3.52776 5.08333 3.52776H5.89815C6.04133 3.52776 6.15741 3.41169 6.15741 3.2685V2.5648C6.15741 2.42162 6.04133 2.30554 5.89815 2.30554Z" fill="white"/>
<path d="M4.85185 4.19446V8.03705C4.85185 8.39816 5.14815 8.69446 5.50926 8.69446C5.87037 8.69446 6.16666 8.39816 6.16666 8.03705V4.19446H4.84259H4.85185Z" fill="white"/>
</svg>

<svg xmlns="http://www.w3.org/2000/svg" width="11" height="11" fill="none" viewBox="0 0 11 11"><path fill="#7e6e73" stroke="#6b6869" stroke-width=".5" d="M5.5.25a5.25 5.25 0 1 1 0 10.5 5.25 5.25 0 0 1 0-10.5Z"/><path fill="#fff" d="M5.898 2.306h-.815a.26.26 0 0 0-.259.259v.704c0 .143.116.259.26.259h.814a.26.26 0 0 0 .26-.26v-.703a.26.26 0 0 0-.26-.26M4.852 4.194v3.843a.66.66 0 0 0 .657.657.66.66 0 0 0 .658-.657V4.194H4.843z"/></svg>
